X:41
T:Buonapart’s Coronation March. WI.041
M:C|
L:1/8
Q:1/4=100
S:Wm Irwin, Folio MS, c1850. AGG’s Transcription
R:.Air
O:England
A:Lake District
Z:vmp.Chris Partington.2005
K:D
f4 g4|a2a>a a2g>f|g2g>g g2a>b|[f3a3][eg] [f2d2] A>d|\
f2-f3g/f/ ed|{f}g2g3{b}a/g/ f2e2|”etc….A.G.G.”zzzz|]

